X: 86
M: C
L: 1/8
K: Bm
(BA) | F2 (Bc) B3 c | d2 (cB) B2 (cd) |
e3 f (ec) (Bc) | (A3 B) c2 (BA) | F2 (Bc)
(d>e) (c>d) | B4 f2 ][ (Bc) | (def) g a3 b |
(af) (ef) a2 (ed) | c2 (af) (ec) (Bc) | (A3 B)
c2 (BA) | d2 (cB) B3 F | (B>cd) e
{d e}f2 (ed) | (e>fa) b (af) (ec) | B4 f2 |]
K:

X

